public/media/icons-technologies/GIT.svg

<svg width="140" height="140" viewBox="0 0 140 140" fill="none" xmlns="http://www.w3.org/2000/svg">
<g clip-path="url(#clip0_205_1390)">
<path d="M127.737 64.6534L75.3437 12.2631C72.3283 9.24579 67.4345 9.24579 64.4153 12.2631L53.5356 23.1428L67.337 36.9442C70.5442 35.8605 74.222 36.5875 76.7786 39.1441C79.3473 41.717 80.0692 45.4263 78.9592 48.6438L92.26 61.945C95.478 60.8364 99.1909 61.5536 101.761 64.128C105.353 67.7186 105.353 73.5381 101.761 77.1311C98.1681 80.7245 92.3486 80.7245 88.7537 77.1311C86.0519 74.4264 85.3844 70.4584 86.7522 67.1298L74.3481 54.7258L74.3467 87.3681C75.2459 87.8127 76.0672 88.4 76.7786 89.1072C80.3706 92.6978 80.3706 98.5178 76.7786 102.114C73.1856 105.705 67.3633 105.705 63.7755 102.114C60.1834 98.5178 60.1834 92.6983 63.7755 89.1077C64.6363 88.2464 65.6593 87.5644 66.7853 87.1009V54.1544C65.6576 53.694 64.6341 53.0116 63.7755 52.1477C61.0539 49.4298 60.3995 45.4366 61.7941 42.0948L48.1891 28.4884L12.2641 64.4111C9.24531 67.4313 9.24531 72.3255 12.2641 75.3433L64.6581 127.735C67.6745 130.752 72.5673 130.752 75.5875 127.735L127.736 75.5866C130.754 72.5678 130.755 67.6708 127.737 64.6534Z" fill="#DE4C36"/>
</g>
<defs>
<clipPath id="clip0_205_1390">
<rect width="120" height="120" fill="white" transform="translate(10 10)"/>
</clipPath>
</defs>
</svg>

<svg xmlns="http://www.w3.org/2000/svg" fill="none" viewBox="0 0 140 140">
  <g clip-path="url(#a)">
    <path fill="#DE4C36" d="m127.74 64.65-52.4-52.39a7.73 7.73 0 0 0-10.92 0L53.54 23.14l13.8 13.8a9.17 9.17 0 0 1 11.62 11.7l13.3 13.3a9.18 9.18 0 0 1 9.5 15.2 9.2 9.2 0 0 1-15-10.01l-12.41-12.4v32.64a9.2 9.2 0 1 1-7.56-.27V54.15a9.2 9.2 0 0 1-5-12.06L48.2 28.5 12.26 64.4a7.73 7.73 0 0 0 0 10.93l52.4 52.4a7.73 7.73 0 0 0 10.93 0l52.15-52.15a7.73 7.73 0 0 0 0-10.94Z"/>
  </g>
  <defs>
    <clipPath id="a">
      <path fill="#fff" d="M0 0h120v120H0z" transform="translate(10 10)"/>
    </clipPath>
  </defs>
</svg>
